images/3234448.svg

<?xml version="1.0" encoding="UTF-8"?>
<svg xmlns="http://www.w3.org/2000/svg" xmlns:xlink="http://www.w3.org/1999/xlink" width="300pt" height="300pt" viewBox="0 0 300 300" version="1.1">
<defs>
<g>
<symbol overflow="visible" id="glyph0-0">
<path style="stroke:none;" d="M 0.796875 2.828125 L 0.796875 -11.28125 L 8.796875 -11.28125 L 8.796875 2.828125 Z M 1.703125 1.9375 L 7.90625 1.9375 L 7.90625 -10.390625 L 1.703125 -10.390625 Z M 1.703125 1.9375 "/>
</symbol>
<symbol overflow="visible" id="glyph0-1">
<path style="stroke:none;" d="M 1.578125 -11.671875 L 3.703125 -11.671875 L 8.875 -1.90625 L 8.875 -11.671875 L 10.40625 -11.671875 L 10.40625 0 L 8.28125 0 L 3.109375 -9.765625 L 3.109375 0 L 1.578125 0 Z M 1.578125 -11.671875 "/>
</symbol>
</g>
</defs>
<g id="surface28833">
<rect x="0" y="0" width="300" height="300" style="fill:rgb(100%,100%,100%);fill-opacity:1;stroke:none;"/>
<path style="fill:none;stroke-width:1.2;stroke-linecap:butt;stroke-linejoin:miter;stroke:rgb(0%,0%,0%);stroke-opacity:1;stroke-miterlimit:10;" d="M 261.390625 140.8125 L 242.824219 136.21875 "/>
<path style="fill:none;stroke-width:1.2;stroke-linecap:butt;stroke-linejoin:miter;stroke:rgb(0%,0%,100%);stroke-opacity:1;stroke-miterlimit:10;" d="M 242.824219 136.21875 L 224.261719 131.625 "/>
<path style="fill:none;stroke-width:1.2;stroke-linecap:butt;stroke-linejoin:miter;stroke:rgb(0%,0%,100%);stroke-opacity:1;stroke-miterlimit:10;" d="M 224.261719 131.625 L 211 145.40625 "/>
<path style="fill:none;stroke-width:1.2;stroke-linecap:butt;stroke-linejoin:miter;stroke:rgb(0%,0%,0%);stroke-opacity:1;stroke-miterlimit:10;" d="M 211 145.40625 L 197.738281 159.1875 "/>
<path style="fill:none;stroke-width:1.2;stroke-linecap:butt;stroke-linejoin:miter;stroke:rgb(0%,0%,0%);stroke-opacity:1;stroke-miterlimit:10;" d="M 213.652344 94.875 L 218.957031 113.25 "/>
<path style="fill:none;stroke-width:1.2;stroke-linecap:butt;stroke-linejoin:miter;stroke:rgb(0%,0%,100%);stroke-opacity:1;stroke-miterlimit:10;" d="M 218.957031 113.25 L 224.261719 131.625 "/>
<path style=" stroke:none;fill-rule:nonzero;fill:rgb(100%,100%,100%);fill-opacity:1;" d="M 218.261719 122.125 L 230.261719 122.125 L 230.261719 141.125 L 218.261719 141.125 Z M 218.261719 122.125 "/>
<g style="fill:rgb(0%,0%,100%);fill-opacity:1;">
  <use xlink:href="#glyph0-1" x="218.261719" y="136.976562"/>
</g>
<path style="fill:none;stroke-width:1.2;stroke-linecap:butt;stroke-linejoin:miter;stroke:rgb(0%,0%,0%);stroke-opacity:1;stroke-miterlimit:10;" d="M 197.738281 159.1875 L 160.609375 150 "/>
<path style="fill:none;stroke-width:1.2;stroke-linecap:butt;stroke-linejoin:miter;stroke:rgb(0%,0%,0%);stroke-opacity:1;stroke-miterlimit:10;" d="M 160.609375 150 L 155.304688 131.625 "/>
<path style="fill:none;stroke-width:1.2;stroke-linecap:butt;stroke-linejoin:miter;stroke:rgb(0%,0%,100%);stroke-opacity:1;stroke-miterlimit:10;" d="M 155.304688 131.625 L 150 113.25 "/>
<path style="fill:none;stroke-width:1.2;stroke-linecap:butt;stroke-linejoin:miter;stroke:rgb(0%,0%,100%);stroke-opacity:1;stroke-miterlimit:10;" d="M 150 113.25 L 163.261719 99.46875 "/>
<path style="fill:none;stroke-width:1.2;stroke-linecap:butt;stroke-linejoin:miter;stroke:rgb(0%,0%,0%);stroke-opacity:1;stroke-miterlimit:10;" d="M 163.261719 99.46875 L 176.523438 85.6875 "/>
<path style="fill:none;stroke-width:1.2;stroke-linecap:butt;stroke-linejoin:miter;stroke:rgb(0%,0%,100%);stroke-opacity:1;stroke-miterlimit:10;" d="M 150 113.25 L 131.433594 108.65625 "/>
<path style="fill:none;stroke-width:1.2;stroke-linecap:butt;stroke-linejoin:miter;stroke:rgb(0%,0%,0%);stroke-opacity:1;stroke-miterlimit:10;" d="M 131.433594 108.65625 L 112.871094 104.0625 "/>
<path style=" stroke:none;fill-rule:nonzero;fill:rgb(100%,100%,100%);fill-opacity:1;" d="M 144 103.75 L 156 103.75 L 156 122.75 L 144 122.75 Z M 144 103.75 "/>
<g style="fill:rgb(0%,0%,100%);fill-opacity:1;">
  <use xlink:href="#glyph0-1" x="144" y="118.601562"/>
</g>
<path style="fill:none;stroke-width:1.2;stroke-linecap:butt;stroke-linejoin:miter;stroke:rgb(0%,0%,0%);stroke-opacity:1;stroke-miterlimit:10;" d="M 176.523438 85.6875 L 213.652344 94.875 "/>
<path style="fill:none;stroke-width:1.2;stroke-linecap:butt;stroke-linejoin:miter;stroke:rgb(0%,0%,0%);stroke-opacity:1;stroke-miterlimit:10;" d="M 112.871094 104.0625 L 107.566406 85.6875 "/>
<path style="fill:none;stroke-width:1.2;stroke-linecap:butt;stroke-linejoin:miter;stroke:rgb(0%,0%,100%);stroke-opacity:1;stroke-miterlimit:10;" d="M 107.566406 85.6875 L 102.261719 67.3125 "/>
<path style="fill:none;stroke-width:1.2;stroke-linecap:butt;stroke-linejoin:miter;stroke:rgb(0%,0%,0%);stroke-opacity:1;stroke-miterlimit:10;" d="M 103.160156 102.882812 L 98.917969 88.183594 "/>
<path style="fill:none;stroke-width:1.2;stroke-linecap:butt;stroke-linejoin:miter;stroke:rgb(0%,0%,100%);stroke-opacity:1;stroke-miterlimit:10;" d="M 98.917969 88.183594 L 94.675781 73.484375 "/>
<path style="fill:none;stroke-width:1.2;stroke-linecap:butt;stroke-linejoin:miter;stroke:rgb(0%,0%,0%);stroke-opacity:1;stroke-miterlimit:10;" d="M 86.347656 131.625 L 112.871094 104.0625 "/>
<path style="fill:none;stroke-width:1.2;stroke-linecap:butt;stroke-linejoin:miter;stroke:rgb(0%,0%,100%);stroke-opacity:1;stroke-miterlimit:10;" d="M 102.261719 67.3125 L 83.695312 62.71875 "/>
<path style="fill:none;stroke-width:1.2;stroke-linecap:butt;stroke-linejoin:miter;stroke:rgb(0%,0%,0%);stroke-opacity:1;stroke-miterlimit:10;" d="M 83.695312 62.71875 L 65.132812 58.125 "/>
<path style=" stroke:none;fill-rule:nonzero;fill:rgb(100%,100%,100%);fill-opacity:1;" d="M 96.261719 57.8125 L 108.261719 57.8125 L 108.261719 76.8125 L 96.261719 76.8125 Z M 96.261719 57.8125 "/>
<g style="fill:rgb(0%,0%,100%);fill-opacity:1;">
  <use xlink:href="#glyph0-1" x="96.261719" y="72.664062"/>
</g>
<path style="fill:none;stroke-width:1.2;stroke-linecap:butt;stroke-linejoin:miter;stroke:rgb(0%,0%,0%);stroke-opacity:1;stroke-miterlimit:10;" d="M 65.132812 58.125 L 51.871094 71.90625 "/>
<path style="fill:none;stroke-width:1.2;stroke-linecap:butt;stroke-linejoin:miter;stroke:rgb(0%,0%,100%);stroke-opacity:1;stroke-miterlimit:10;" d="M 51.871094 71.90625 L 38.609375 85.6875 "/>
<path style="fill:none;stroke-width:1.2;stroke-linecap:butt;stroke-linejoin:miter;stroke:rgb(0%,0%,0%);stroke-opacity:1;stroke-miterlimit:10;" d="M 68.964844 67.125 L 58.355469 78.148438 "/>
<path style="fill:none;stroke-width:1.2;stroke-linecap:butt;stroke-linejoin:miter;stroke:rgb(0%,0%,100%);stroke-opacity:1;stroke-miterlimit:10;" d="M 58.355469 78.148438 L 47.746094 89.171875 "/>
<path style="fill:none;stroke-width:1.2;stroke-linecap:butt;stroke-linejoin:miter;stroke:rgb(0%,0%,100%);stroke-opacity:1;stroke-miterlimit:10;" d="M 38.609375 85.6875 L 43.914062 104.0625 "/>
<path style="fill:none;stroke-width:1.2;stroke-linecap:butt;stroke-linejoin:miter;stroke:rgb(0%,0%,0%);stroke-opacity:1;stroke-miterlimit:10;" d="M 43.914062 104.0625 L 49.21875 122.4375 "/>
<path style=" stroke:none;fill-rule:nonzero;fill:rgb(100%,100%,100%);fill-opacity:1;" d="M 32.609375 76.1875 L 44.609375 76.1875 L 44.609375 95.1875 L 32.609375 95.1875 Z M 32.609375 76.1875 "/>
<g style="fill:rgb(0%,0%,100%);fill-opacity:1;">
  <use xlink:href="#glyph0-1" x="32.609375" y="91.039062"/>
</g>
<path style="fill:none;stroke-width:1.2;stroke-linecap:butt;stroke-linejoin:miter;stroke:rgb(0%,0%,0%);stroke-opacity:1;stroke-miterlimit:10;" d="M 49.21875 122.4375 L 86.347656 131.625 "/>
<path style="fill:none;stroke-width:1.2;stroke-linecap:butt;stroke-linejoin:miter;stroke:rgb(0%,0%,0%);stroke-opacity:1;stroke-miterlimit:10;" d="M 55.09375 114.621094 L 84.796875 121.96875 "/>
<path style="fill:none;stroke-width:1.2;stroke-linecap:butt;stroke-linejoin:miter;stroke:rgb(0%,0%,0%);stroke-opacity:1;stroke-miterlimit:10;" d="M 86.347656 131.625 L 96.957031 168.375 "/>
<path style="fill:none;stroke-width:1.2;stroke-linecap:butt;stroke-linejoin:miter;stroke:rgb(0%,0%,0%);stroke-opacity:1;stroke-miterlimit:10;" d="M 96.957031 168.375 L 70.433594 195.9375 "/>
<path style="fill:none;stroke-width:1.2;stroke-linecap:butt;stroke-linejoin:miter;stroke:rgb(0%,0%,0%);stroke-opacity:1;stroke-miterlimit:10;" d="M 100.789062 177.371094 L 79.574219 199.421875 "/>
<path style="fill:none;stroke-width:1.2;stroke-linecap:butt;stroke-linejoin:miter;stroke:rgb(0%,0%,0%);stroke-opacity:1;stroke-miterlimit:10;" d="M 134.085938 177.5625 L 96.957031 168.375 "/>
<path style="fill:none;stroke-width:1.2;stroke-linecap:butt;stroke-linejoin:miter;stroke:rgb(0%,0%,0%);stroke-opacity:1;stroke-miterlimit:10;" d="M 70.433594 195.9375 L 75.738281 214.3125 "/>
<path style="fill:none;stroke-width:1.2;stroke-linecap:butt;stroke-linejoin:miter;stroke:rgb(0%,0%,100%);stroke-opacity:1;stroke-miterlimit:10;" d="M 75.738281 214.3125 L 81.042969 232.6875 "/>
<path style="fill:none;stroke-width:1.2;stroke-linecap:butt;stroke-linejoin:miter;stroke:rgb(0%,0%,100%);stroke-opacity:1;stroke-miterlimit:10;" d="M 81.042969 232.6875 L 99.609375 237.28125 "/>
<path style="fill:none;stroke-width:1.2;stroke-linecap:butt;stroke-linejoin:miter;stroke:rgb(0%,0%,0%);stroke-opacity:1;stroke-miterlimit:10;" d="M 99.609375 237.28125 L 118.175781 241.875 "/>
<path style="fill:none;stroke-width:1.2;stroke-linecap:butt;stroke-linejoin:miter;stroke:rgb(0%,0%,100%);stroke-opacity:1;stroke-miterlimit:10;" d="M 86.917969 224.867188 L 101.769531 228.542969 "/>
<path style="fill:none;stroke-width:1.2;stroke-linecap:butt;stroke-linejoin:miter;stroke:rgb(0%,0%,0%);stroke-opacity:1;stroke-miterlimit:10;" d="M 101.769531 228.542969 L 116.621094 232.21875 "/>
<path style=" stroke:none;fill-rule:nonzero;fill:rgb(100%,100%,100%);fill-opacity:1;" d="M 75.042969 223.1875 L 87.042969 223.1875 L 87.042969 242.1875 L 75.042969 242.1875 Z M 75.042969 223.1875 "/>
<g style="fill:rgb(0%,0%,100%);fill-opacity:1;">
  <use xlink:href="#glyph0-1" x="75.042969" y="238.039062"/>
</g>
<path style="fill:none;stroke-width:1.2;stroke-linecap:butt;stroke-linejoin:miter;stroke:rgb(0%,0%,0%);stroke-opacity:1;stroke-miterlimit:10;" d="M 118.175781 241.875 L 144.695312 214.3125 "/>
<path style="fill:none;stroke-width:1.2;stroke-linecap:butt;stroke-linejoin:miter;stroke:rgb(0%,0%,0%);stroke-opacity:1;stroke-miterlimit:10;" d="M 144.695312 214.3125 L 134.085938 177.5625 "/>
<path style="fill:none;stroke-width:1.2;stroke-linecap:butt;stroke-linejoin:miter;stroke:rgb(0%,0%,0%);stroke-opacity:1;stroke-miterlimit:10;" d="M 134.988281 213.132812 L 126.5 183.734375 "/>
</g>
</svg>

<svg xmlns="http://www.w3.org/2000/svg" xmlns:xlink="http://www.w3.org/1999/xlink" width="300pt" height="300pt" viewBox="0 0 300 300"><defs><symbol overflow="visible"><path d="M.797 2.828v-14.11h8V2.83zm.906-.89h6.203v-12.33H1.703zm0 0"/></symbol><symbol overflow="visible" id="a"><path d="M1.578-11.672h2.125l5.172 9.766v-9.766h1.53V0H8.282L3.11-9.766V0H1.577zm0 0"/></symbol></defs><g><path fill="#fff" d="M0 0h300v300H0z"/><path d="M261.39 140.813l-18.566-4.594" stroke-width="1.2" stroke="#000" stroke-miterlimit="10" fill="none"/><path d="M242.824 136.22l-18.562-4.595M224.262 131.625L211 145.405" stroke-width="1.2" stroke="#00f" stroke-miterlimit="10" fill="none"/><path d="M211 145.406l-13.262 13.78M213.652 94.875l5.305 18.375" stroke-width="1.2" stroke="#000" stroke-miterlimit="10" fill="none"/><path d="M218.957 113.25l5.305 18.375" stroke-width="1.2" stroke="#00f" stroke-miterlimit="10" fill="none"/><path d="M218.262 122.125h12v19h-12zm0 0" fill="#fff"/><use xlink:href="#a" x="218.262" y="136.977" fill="#00f"/><path d="M197.738 159.188L160.608 150M160.61 150l-5.305-18.375" stroke-width="1.2" stroke="#000" stroke-miterlimit="10" fill="none"/><path d="M155.305 131.625L150 113.25M150 113.25l13.262-13.78" stroke-width="1.2" stroke="#00f" stroke-miterlimit="10" fill="none"/><path d="M163.262 99.47l13.26-13.782" stroke-width="1.2" stroke="#000" stroke-miterlimit="10" fill="none"/><path d="M150 113.25l-18.566-4.594" stroke-width="1.2" stroke="#00f" stroke-miterlimit="10" fill="none"/><path d="M131.434 108.656l-18.563-4.594" stroke-width="1.2" stroke="#000" stroke-miterlimit="10" fill="none"/><path d="M144 103.75h12v19h-12zm0 0" fill="#fff"/><use xlink:href="#a" x="144" y="118.602" fill="#00f"/><path d="M176.523 85.688l37.13 9.187M112.87 104.063l-5.304-18.376" stroke-width="1.2" stroke="#000" stroke-miterlimit="10" fill="none"/><path d="M107.566 85.688l-5.304-18.376" stroke-width="1.2" stroke="#00f" stroke-miterlimit="10" fill="none"/><path d="M103.16 102.883l-4.242-14.7" stroke-width="1.2" stroke="#000" stroke-miterlimit="10" fill="none"/><path d="M98.918 88.184l-4.242-14.7" stroke-width="1.2" stroke="#00f" stroke-miterlimit="10" fill="none"/><path d="M86.348 131.625l26.523-27.563" stroke-width="1.2" stroke="#000" stroke-miterlimit="10" fill="none"/><path d="M102.262 67.313l-18.567-4.594" stroke-width="1.2" stroke="#00f" stroke-miterlimit="10" fill="none"/><path d="M83.695 62.72l-18.562-4.595" stroke-width="1.2" stroke="#000" stroke-miterlimit="10" fill="none"/><path d="M96.262 57.813h12v19h-12zm0 0" fill="#fff"/><use xlink:href="#a" x="96.262" y="72.664" fill="#00f"/><path d="M65.133 58.125L51.87 71.905" stroke-width="1.2" stroke="#000" stroke-miterlimit="10" fill="none"/><path d="M51.87 71.906l-13.26 13.78" stroke-width="1.2" stroke="#00f" stroke-miterlimit="10" fill="none"/><path d="M68.965 67.125l-10.61 11.023" stroke-width="1.2" stroke="#000" stroke-miterlimit="10" fill="none"/><path d="M58.355 78.148l-10.61 11.024M38.61 85.688l5.304 18.374" stroke-width="1.2" stroke="#00f" stroke-miterlimit="10" fill="none"/><path d="M43.914 104.063l5.305 18.374" stroke-width="1.2" stroke="#000" stroke-miterlimit="10" fill="none"/><path d="M32.61 76.188h12v19h-12zm0 0" fill="#fff"/><use xlink:href="#a" x="32.609" y="91.039" fill="#00f"/><path d="M49.22 122.438l37.128 9.187M55.094 114.62l29.703 7.35M86.348 131.625l10.61 36.75M96.957 168.375l-26.523 27.563M100.79 177.37l-21.216 22.052M134.086 177.563l-37.13-9.188M70.434 195.938l5.304 18.375" stroke-width="1.2" stroke="#000" stroke-miterlimit="10" fill="none"/><path d="M75.738 214.313l5.305 18.375M81.043 232.688l18.566 4.593" stroke-width="1.2" stroke="#00f" stroke-miterlimit="10" fill="none"/><path d="M99.61 237.28l18.566 4.595" stroke-width="1.2" stroke="#000" stroke-miterlimit="10" fill="none"/><path d="M86.918 224.867l14.852 3.676" stroke-width="1.2" stroke="#00f" stroke-miterlimit="10" fill="none"/><path d="M101.77 228.543l14.85 3.676" stroke-width="1.2" stroke="#000" stroke-miterlimit="10" fill="none"/><path d="M75.043 223.188h12v19h-12zm0 0" fill="#fff"/><use xlink:href="#a" x="75.043" y="238.039" fill="#00f"/><path d="M118.176 241.875l26.52-27.563M144.695 214.313l-10.61-36.75M134.988 213.133l-8.488-29.4" stroke-width="1.2" stroke="#000" stroke-miterlimit="10" fill="none"/></g></svg>
